X: 15412
T: Glen Allen
R: reel
M: 4/4
K: Gmajor
|:G2 DG EGDE|G2 BG AGEG|A2 EG AGEG|ABcd edBA|
G2 DG EGDE|G2 BG AGEG|cBcd efge|dBAB G2:|
|:g2 dg egde|g2 bg ageg|a2 eg ageg|a2 bg agef|
g2 dg egde|g2 bg aged|cBcd efge|dBAB G2:|

